Square/Fennia.svg

<?xml version="1.0" encoding="UTF-8"?>
<svg width="32px" height="32px" viewBox="0 0 32 32" version="1.1" xmlns="http://www.w3.org/2000/svg" xmlns:xlink="http://www.w3.org/1999/xlink">
    <!-- Generator: Sketch 52.3 (67297) - http://www.bohemiancoding.com/sketch -->
    <title>Square/Fennia</title>
    <desc>Created with Sketch.</desc>
    <g id="Square/Fennia" stroke="none" stroke-width="1" fill="none" fill-rule="evenodd">
        <path d="M0,0 L32,0 L32,32 L0,32 L0,0 Z M23.9485741,13.2843116 C23.9742871,12.9125423 24,12.5142181 24,12.0362291 C23.9485741,11.4254654 23.8971482,10.8412566 23.7685836,10.2570478 C23.3828895,8.66375108 22.6115013,7.28289393 21.4029933,6.19414118 C20.7601698,5.60993238 20.0402075,5.13194337 19.2431065,4.76017414 C18.3174407,4.33529501 17.340349,4.09630051 16.3118315,4.01663567 C15.7204339,3.96352578 15.1290364,4.04319061 14.5376388,4.17596534 C13.637686,4.36184996 12.789159,4.73361919 11.9920579,5.2116082 C11.1949568,5.71615216 10.5007075,6.3269159 9.88359701,7.04389943 C9.39505119,7.62810822 8.98364418,8.29198185 8.67508892,9.00896537 C8.23796897,9.99149835 8.05797841,11.0271412 8.00655253,12.089339 C7.98083959,12.7266577 8.03226547,13.3374214 8.13511722,13.9481852 C8.23796897,14.6917237 8.46938542,15.4087072 8.77794067,16.0725808 C9.08649593,16.7098995 9.47219,17.2941083 9.93502288,17.8517621 C10.3978558,18.409416 10.8864016,18.887405 11.4520862,19.3122841 C11.8377803,19.6309435 12.2749002,19.869938 12.6863073,20.1089325 C12.7377331,20.1354874 12.789159,20.1620424 12.789159,20.2417072 L12.789159,24.4108336 C12.789159,24.5701633 12.7377331,24.5436083 12.6091684,24.5436083 L10.0378746,24.5436083 C9.65218057,24.5170534 9.2664865,24.5436083 8.88079242,24.5436083 C8.77794067,24.5436083 8.75222773,24.5701633 8.75222773,24.6763831 L8.75222773,27.9426413 C8.80365361,28.0223062 8.88079242,27.9957512 8.9322183,27.9957512 L22.7914919,27.9957512 C22.8429178,27.9957512 22.9200566,28.0223062 22.9714825,27.9426413 L22.9714825,24.7560479 C22.9714825,24.6498281 22.9457695,24.5967182 22.8172048,24.5967182 L19.1145418,24.5967182 C19.01169,24.5967182 18.9602641,24.5967182 18.9602641,24.4639435 L18.9602641,20.3744819 C18.9602641,20.2682621 19.01169,20.2151523 19.0888288,20.1885973 C19.3716712,20.0823775 19.6545135,19.9230479 19.9373558,19.7637182 C20.8115957,19.2326193 21.6086968,18.5687457 22.2515202,17.7455424 C22.740066,17.1347786 23.151473,16.4177951 23.4343154,15.6742566 C23.7171577,14.9041632 23.8971482,14.1075149 23.9485741,13.2843116 Z M17.9831725,12.2752236 C19.2688194,12.2752236 20.5544663,12.2752236 21.8144003,12.2486687 L21.9686779,12.2486687 C21.4544191,13.1515368 20.9658733,14.054405 20.4516145,14.9572731 C19.7573652,16.2053555 19.037403,17.453438 18.3431536,18.7015204 C18.2660148,18.7811852 18.2917278,18.8608501 18.2917278,18.9405149 L18.2917278,24.3311688 C18.2917278,24.5170534 18.2403019,24.5701633 18.0603113,24.5701633 L13.5605472,24.5701633 C13.3548436,24.5701633 13.3291307,24.5170534 13.3291307,24.3311688 L13.3291307,19.1263995 C13.3291307,19.0467347 13.3548436,18.9670698 13.3034178,18.9139599 C13.2519919,18.6218555 13.0977143,18.382861 12.9691496,18.1438665 C12.6348814,17.453438 12.2749002,16.7630094 11.9149191,16.0725808 C11.4263733,15.1166028 10.9378275,14.1340698 10.4492816,13.1780918 C10.295004,12.8859874 10.1407264,12.593883 9.98644876,12.2752236 L13.9976671,12.2752236 C14.1005188,12.2752236 14.1776577,12.3017786 14.2290835,12.4079984 C14.7947682,13.4967511 15.3347399,14.5589489 15.9004245,15.6477017 L15.9261375,15.6742566 C16.4403962,14.7448335 16.954655,13.8419654 17.4689137,12.9390973 C17.5717655,12.7532126 17.6746172,12.593883 17.7517561,12.4079984 C17.8031819,12.3017786 17.8803207,12.2752236 17.9831725,12.2752236 Z" id="Fennia" fill="#004921" fill-rule="nonzero"></path>
    </g>
</svg>

<svg width="32" height="32" xmlns="http://www.w3.org/2000/svg"><path d="M0 0h32v32H0V0zm23.949 13.284c.025-.371.051-.77.051-1.248-.051-.61-.103-1.195-.231-1.779-.386-1.593-1.157-2.974-2.366-4.063a8.59 8.59 0 0 0-2.16-1.434 8.537 8.537 0 0 0-2.931-.743c-.592-.053-1.183.026-1.774.159-.9.186-1.749.558-2.546 1.036a9.394 9.394 0 0 0-2.108 1.832 8.001 8.001 0 0 0-1.209 1.965c-.437.982-.617 2.018-.668 3.08a8.92 8.92 0 0 0 .128 1.86c.103.743.334 1.46.643 2.124a8.723 8.723 0 0 0 1.157 1.779 8.883 8.883 0 0 0 1.517 1.46c.386.319.823.558 1.234.797.052.026.103.053.103.133v4.169c0 .16-.051.133-.18.133h-2.571c-.386-.027-.772 0-1.157 0-.103 0-.129.026-.129.132v3.267c.052.08.129.053.18.053h13.86c.05 0 .128.026.18-.053v-3.187c0-.106-.026-.16-.155-.16h-3.702c-.103 0-.155 0-.155-.132v-4.09c0-.106.052-.159.129-.185.283-.107.566-.266.848-.425.875-.531 1.672-1.195 2.315-2.018.488-.611.9-1.328 1.182-2.072.283-.77.463-1.566.515-2.39zm-5.966-1.009c1.286 0 2.571 0 3.831-.026h.155c-.515.903-1.003 1.805-1.517 2.708-.695 1.248-1.415 2.496-2.109 3.745-.077.08-.051.159-.051.239v5.39c0 .186-.052.24-.232.24h-4.5c-.205 0-.23-.054-.23-.24v-5.205c0-.08.025-.159-.027-.212-.051-.292-.205-.531-.334-.77a77.683 77.683 0 0 0-1.054-2.071c-.489-.956-.977-1.939-1.466-2.895-.154-.292-.308-.584-.463-.903h4.012c.103 0 .18.027.231.133.566 1.089 1.106 2.15 1.671 3.24l.026.026c.514-.93 1.029-1.832 1.543-2.735.103-.186.206-.345.283-.531.051-.106.128-.133.231-.133z" fill="#004921"/></svg>
